; generated by Slic3r 1.1.6 on 2014-07-08 at 22:45:34

; Profile for Sharebot NG !

; perimeters extrusion width = 0.40mm
; infill extrusion width = 0.40mm
; solid infill extrusion width = 0.40mm
; top infill extrusion width = 0.40mm

; perimeters extrusion width = 0.40mm
; infill extrusion width = 0.40mm
; solid infill extrusion width = 0.40mm
; top infill extrusion width = 0.40mm

G21 ; set units to millimeters
M107
M190 S40 ; wait for bed temperature to be reached
M218 T1 X-58.5 Y0
G28 ;Home all axis
T0
M106 S127 ;EXTRUDER FAN ON
G1 Z10 F1000
G1 X200 Y200 F3000
M104 S230,230
T1
M109 S230,230
T0
G92 E0
M117 DUAL ESTRUSION TEST
G90 ; use absolute coordinates
G92 E0
M82 ; use absolute distances for extrusion
T0
G92 E0
M204 S1200
G1 Z0.300 F6000.000
G1 F1800.000 E-2.00000
G92 E0
G1 X6.427 Y48.398 F6000.000
G1 E2.00000 F1800.000
G1 X55.210 Y45.800 E5.87291 F1200.000
G1 X55.610 Y45.800 E5.90462
G1 X57.186 Y45.975 E6.03028
G1 X164.765 Y70.175 E14.77206
G1 X166.975 Y71.079 E14.96138
G1 X168.766 Y72.658 E15.15069
G1 X169.940 Y74.738 E15.34001
G1 X170.368 Y77.178 E15.53639
G1 X170.367 Y80.845 E15.82710
G1 X169.986 Y105.645 E17.79343
G1 X169.486 Y125.645 E19.37949
G1 X169.030 Y127.989 E19.56880
G1 X167.831 Y130.054 E19.75812
G1 X166.020 Y131.611 E19.94743
G1 X164.315 Y132.358 E20.09502
G1 X55.812 Y163.915 E29.05332
G1 X53.808 Y164.200 E29.21385
G1 X53.091 Y164.193 E29.27066
G1 X6.494 Y162.137 E32.96838
G1 X4.159 Y161.636 E33.15769
G1 X2.118 Y160.397 E33.34701
G1 X0.595 Y158.557 E33.53632
G1 X-0.239 Y156.319 E33.72564
G1 X-0.368 Y154.965 E33.83346
G1 X-0.368 Y55.565 E41.71369
G1 X0.030 Y53.211 E41.90301
G1 X1.177 Y51.117 E42.09232
G1 X2.948 Y49.515 E42.28164
G1 X5.147 Y48.583 E42.47095
G1 X6.375 Y48.405 E42.56934
G1 F1800.000 E40.56934
G92 E0
G1 X6.461 Y49.032 F6000.000
G1 E2.00000 F1800.000
G1 X55.210 Y46.435 E5.87022 F1200.000
G1 X55.610 Y46.435 E5.90193
G1 X57.046 Y46.595 E6.01647
G1 X164.625 Y70.795 E14.75825
G1 X166.728 Y71.675 E14.93892
G1 X168.401 Y73.222 E15.11960
G1 X169.442 Y75.250 E15.30028
G1 X169.732 Y77.178 E15.45486
G1 X169.731 Y80.835 E15.74479
G1 X169.351 Y105.629 E17.71063
G1 X168.851 Y125.629 E19.29669
G1 X168.398 Y127.862 E19.47737
G1 X167.206 Y129.805 E19.65804
G1 X165.421 Y131.221 E19.83872
G1 X164.138 Y131.748 E19.94867
G1 X55.635 Y163.304 E28.90698
G1 X53.808 Y163.565 E29.05329
G1 X53.119 Y163.558 E29.10787
G1 X6.522 Y161.502 E32.80560
G1 X4.297 Y161.006 E32.98627
G1 X2.378 Y159.777 E33.16695
G1 X0.996 Y157.965 E33.34763
G1 X0.268 Y154.965 E33.59234
G1 X0.268 Y55.565 E41.47257
G1 X0.665 Y53.321 E41.65325
G1 X1.808 Y51.349 E41.83392
G1 X3.557 Y49.889 E42.01460
G1 X6.411 Y49.047 E42.25046
G1 F1800.000 E32.25046
G92 E0
T1
G92 E0
G1 F1800.000 E-2.00000
G92 E0
G1 X6.495 Y49.667 F6000.000
G1 E2.00000 F1800.000
G1 X55.210 Y47.071 E5.86753 F1200.000
G1 X55.610 Y47.071 E5.89924
G1 X56.907 Y47.215 E6.00265
G1 X164.486 Y71.415 E14.74443
G1 X166.475 Y72.269 E14.91603
G1 X168.023 Y73.782 E15.08764
G1 X168.922 Y75.751 E15.25924
G1 X169.096 Y77.178 E15.37318
G1 X169.096 Y80.825 E15.66234
G1 X168.715 Y105.613 E17.62770
G1 X168.215 Y125.613 E19.21376
G1 X167.766 Y127.730 E19.38536
G1 X166.583 Y129.544 E19.55697
G1 X163.960 Y131.137 E19.80032
G1 X55.457 Y162.694 E28.75862
G1 X53.808 Y162.929 E28.89072
G1 X53.147 Y162.923 E28.94308
G1 X6.550 Y160.867 E32.64081
G1 X4.442 Y160.376 E32.81241
G1 X2.651 Y159.160 E32.98402
G1 X1.420 Y157.380 E33.15562
G1 X0.904 Y154.965 E33.35135
G1 X0.904 Y55.565 E41.23158
G1 X1.300 Y53.437 E41.40318
G1 X2.437 Y51.595 E41.57479
G1 X4.161 Y50.286 E41.74639
G1 X6.444 Y49.680 E41.93370
G1 F1800.000 E39.93370
G92 E0
G1 X6.529 Y50.302 F6000.000
G1 E2.00000 F1800.000
G1 X55.210 Y47.707 E5.86484 F1200.000
G1 X55.610 Y47.707 E5.89655
G1 X56.767 Y47.835 E5.98883
G1 X164.346 Y72.035 E14.73061
G1 X166.216 Y72.862 E14.89264
G1 X167.630 Y74.337 E15.05466
G1 X168.461 Y77.178 E15.28931
G1 X168.460 Y80.815 E15.57769
G1 X168.080 Y105.597 E17.54257
G1 X167.580 Y125.597 E19.12862
G1 X167.134 Y127.592 E19.29065
G1 X165.963 Y129.266 E19.45267
G1 X163.782 Y130.527 E19.65231
G1 X55.280 Y162.084 E28.61062
G1 X53.808 Y162.293 E28.72850
G1 X53.175 Y162.288 E28.77864
G1 X6.578 Y160.232 E32.47636
G1 X4.592 Y159.747 E32.63839
G1 X2.940 Y158.544 E32.80042
G1 X1.870 Y156.803 E32.96244
G1 X1.539 Y154.965 E33.11047
G1 X1.539 Y55.565 E40.99070
G1 X1.935 Y53.560 E41.15273
G1 X3.064 Y51.857 E41.31475
G1 X4.757 Y50.711 E41.47678
G1 X6.478 Y50.313 E41.61682
G1 F1800.000 E31.61682
G92 E0
T0
G92 E0
G1 X6.563 Y50.936 F6000.000
G1 E10.00000 F1800.000
G1 X55.210 Y48.342 E13.86215 F1200.000
G1 X55.610 Y48.342 E13.89386
G1 X56.628 Y48.455 E13.97501
G1 X164.207 Y72.655 E22.71680
G1 X165.948 Y73.453 E22.86864
G1 X167.219 Y74.886 E23.02048
G1 X167.825 Y77.178 E23.20844
G1 X167.825 Y80.806 E23.49605
G1 X167.445 Y105.581 E25.46044
G1 X166.945 Y125.581 E27.04649
G1 X166.502 Y127.445 E27.19833
G1 X165.344 Y128.970 E27.35018
G1 X163.605 Y129.917 E27.50714
G1 X55.102 Y161.473 E36.46545
G1 X53.808 Y161.658 E36.56911
G1 X53.203 Y161.653 E36.61703
G1 X6.606 Y159.597 E40.31476
G1 X4.751 Y159.119 E40.46660
G1 X3.248 Y157.932 E40.61844
G1 X2.353 Y156.238 E40.77029
G1 X2.175 Y154.965 E40.87218
G1 X2.175 Y55.565 E48.75241
G1 X2.570 Y53.691 E48.90426
G1 X3.690 Y52.137 E49.05610
G1 X5.342 Y51.168 E49.20794
G1 X6.511 Y50.946 E49.30229
G1 F1800.000 E47.30229
G92 E0
G1 X26.810 Y155.265 F6000.000
G1 E2.00000 F1800.000
G1 X46.810 Y155.265 E3.58556 F1200.000
G1 F1800.000 E1.58556
G92 E0
G1 X26.810 Y145.265 F6000.000
G1 E2.00000 F1800.000
G1 X46.810 Y145.265 E3.58556 F1200.000
G1 F1800.000 E1.58556
G92 E0
G1 X26.810 Y135.265 F6000.000
G1 E2.00000 F1800.000
G1 X46.810 Y135.265 E3.58556 F1200.000
G1 F1800.000 E1.58556
G92 E0
G1 X26.810 Y125.265 F6000.000
G1 E2.00000 F1800.000
G1 X46.810 Y125.265 E3.58556 F1200.000
G1 F1800.000 E1.58556
G92 E0
G1 X26.810 Y115.265 F6000.000
G1 E2.00000 F1800.000
G1 X46.810 Y115.265 E3.58556 F1200.000
G1 F1800.000 E1.58556
G92 E0
G1 X26.810 Y105.265 F6000.000
G1 E2.00000 F1800.000
G1 X46.810 Y105.265 E3.58556 F1200.000
G1 F1800.000 E1.58556
G92 E0
G1 X26.810 Y95.265 F6000.000
G1 E2.00000 F1800.000
G1 X46.810 Y95.265 E3.58556 F1200.000
G1 F1800.000 E1.58556
G92 E0
G1 X26.810 Y85.265 F6000.000
G1 E2.00000 F1800.000
G1 X46.810 Y85.265 E3.58556 F1200.000
G1 F1800.000 E1.58556
G92 E0
G1 X26.810 Y75.265 F6000.000
G1 E2.00000 F1800.000
G1 X46.810 Y75.265 E3.58556 F1200.000
G1 F1800.000 E1.58556
G92 E0
G1 X26.810 Y55.265 F6000.000
G1 E2.00000 F1800.000
G1 X46.810 Y55.265 E3.58556 F1200.000
G1 F1800.000 E1.58556
G92 E0
G1 X26.810 Y65.265 F6000.000
G1 E2.00000 F1800.000
G1 X46.810 Y65.265 E3.58556 F1200.000
G1 F1800.000 E1.58556
G92 E0
G1 X92.610 Y105.465 F6000.000
G1 E2.00000 F1800.000
G1 X92.610 Y85.465 E3.58556 F1200.000
G1 F1800.000 E1.58556
G92 E0
G1 X102.610 Y105.465 F6000.000
G1 E2.00000 F1800.000
G1 X102.610 Y85.465 E3.58556 F1200.000
G1 F1800.000 E1.58556
G92 E0
G1 X112.610 Y105.465 F6000.000
G1 E2.00000 F1800.000
G1 X112.610 Y85.465 E3.58556 F1200.000
G1 F1800.000 E1.58556
G92 E0
G1 X122.610 Y105.465 F6000.000
G1 E2.00000 F1800.000
G1 X122.610 Y85.465 E3.58556 F1200.000
G1 F1800.000 E1.58556
G92 E0
G1 X162.610 Y105.465 F6000.000
G1 E2.00000 F1800.000
G1 X162.610 Y85.465 E3.58556 F1200.000
G1 F1800.000 E1.58556
G92 E0
G1 X152.610 Y105.465 F6000.000
G1 E2.00000 F1800.000
G1 X152.610 Y85.465 E3.58556 F1200.000
G1 F1800.000 E1.58556
G92 E0
G1 X142.610 Y105.465 F6000.000
G1 E2.00000 F1800.000
G1 X142.610 Y85.465 E3.58556 F1200.000
G1 F1800.000 E1.58556
G92 E0
G1 X132.610 Y105.465 F6000.000
G1 E2.00000 F1800.000
G1 X132.610 Y85.465 E3.58556 F1200.000
G1 F1800.000 E1.58556
G92 E0
G1 X82.610 Y105.465 F6000.000
G1 E2.00000 F1800.000
G1 X82.610 Y85.465 E3.58556 F1200.000
G1 F1800.000 E1.58556
G92 E0
G1 X72.610 Y105.465 F6000.000
G1 E2.00000 F1800.000
G1 X72.610 Y85.465 E3.58556 F1200.000
G1 F1800.000 E1.58556
G92 E0
G1 X62.610 Y105.465 F6000.000
G1 E2.00000 F1800.000
G1 X62.610 Y85.465 E3.58556 F1200.000
G1 F1800.000 E-6.41444
G92 E0
T1
G92 E0
G1 X6.810 Y144.865 F6000.000
G1 E10.00000 F1800.000
G1 X26.810 Y144.865 E11.58556 F1200.000
G1 F1800.000 E9.58556
G92 E0
G1 X6.810 Y154.765 F6000.000
G1 E2.00000 F1800.000
G1 X26.810 Y154.765 E3.58556 F1200.000
G1 F1800.000 E1.58556
G92 E0
G1 X6.810 Y134.965 F6000.000
G1 E2.00000 F1800.000
G1 X26.810 Y134.965 E3.58556 F1200.000
G1 F1800.000 E1.58556
G92 E0
G1 X6.810 Y125.065 F6000.000
G1 E2.00000 F1800.000
G1 X26.810 Y125.065 E3.58556 F1200.000
G1 F1800.000 E1.58556
G92 E0
G1 X6.810 Y115.165 F6000.000
G1 E2.00000 F1800.000
G1 X26.810 Y115.165 E3.58556 F1200.000
G1 F1800.000 E1.58556
G92 E0
G1 X6.810 Y105.265 F6000.000
G1 E2.00000 F1800.000
G1 X26.810 Y105.265 E3.58556 F1200.000
G1 F1800.000 E1.58556
G92 E0
G1 X6.810 Y95.365 F6000.000
G1 E2.00000 F1800.000
G1 X26.810 Y95.365 E3.58556 F1200.000
G1 F1800.000 E1.58556
G92 E0
G1 X6.810 Y85.465 F6000.000
G1 E2.00000 F1800.000
G1 X26.810 Y85.465 E3.58556 F1200.000
G1 F1800.000 E1.58556
G92 E0
G1 X6.810 Y75.565 F6000.000
G1 E2.00000 F1800.000
G1 X26.810 Y75.565 E3.58556 F1200.000
G1 F1800.000 E1.58556
G92 E0
G1 X6.810 Y65.665 F6000.000
G1 E2.00000 F1800.000
G1 X26.810 Y65.665 E3.58556 F1200.000
G1 F1800.000 E1.58556
G92 E0
G1 X6.810 Y55.765 F6000.000
G1 E2.00000 F1800.000
G1 X26.810 Y55.765 E3.58556 F1200.000
G1 F1800.000 E1.58556
G92 E0
G1 X112.226 Y82.739 F6000.000
G1 E2.00000 F1800.000
G1 X112.047 Y83.234 E2.04171 F1200.000
G1 F1800.000 E0.04171
G92 E0
G1 X111.166 Y80.615 F6000.000
G1 E2.00000 F1800.000
G1 X111.189 Y80.228 E2.03074 F1200.000
G1 X111.274 Y79.742 E2.06985
G1 X111.445 Y79.280 E2.10892
G1 X111.697 Y78.924 E2.14355
G1 X112.078 Y78.684 E2.17916
G1 X112.551 Y78.620 E2.21708
G1 X112.708 Y78.643 E2.22965
G1 X112.992 Y78.724 E2.25302
G1 X113.177 Y78.837 E2.27018
G1 X113.350 Y78.984 E2.28824
G1 X113.495 Y79.173 E2.30714
G1 X113.619 Y79.400 E2.32761
G1 X113.762 Y79.851 E2.36508
G1 X113.839 Y80.366 E2.40637
G1 X113.860 Y80.909 E2.44949
G1 X113.834 Y81.439 E2.49152
G1 X113.750 Y81.946 E2.53227
G1 X113.590 Y82.404 E2.57072
G1 X113.467 Y82.597 E2.58889
G1 X113.319 Y82.768 E2.60683
G1 X113.150 Y82.895 E2.62354
G1 X112.954 Y82.985 E2.64066
G1 X112.703 Y83.039 E2.66098
G1 X112.465 Y83.052 E2.67988
G1 X112.196 Y83.011 E2.70149
G1 X112.022 Y82.956 E2.71591
G1 X111.661 Y82.699 E2.75103
G1 X111.419 Y82.319 E2.78680
G1 X111.261 Y81.825 E2.82787
G1 X111.186 Y81.334 E2.86726
G1 X111.166 Y80.615 E2.92427
G1 F1800.000 E0.92427
G92 E0
G1 X112.041 Y78.432 F6000.000
G1 E2.00000 F1800.000
G1 X112.217 Y78.933 E2.04214 F1200.000
G1 F1800.000 E0.04214
G92 E0
G1 X162.110 Y125.465 F6000.000
G1 E2.00000 F1800.000
G1 X162.110 Y105.465 E3.58556 F1200.000
G1 F1800.000 E1.58556
G92 E0
G1 X152.210 Y125.465 F6000.000
G1 E2.00000 F1800.000
G1 X152.210 Y105.465 E3.58556 F1200.000
G1 F1800.000 E1.58556
G92 E0
G1 X142.310 Y125.465 F6000.000
G1 E2.00000 F1800.000
G1 X142.310 Y105.465 E3.58556 F1200.000
G1 F1800.000 E1.58556
G92 E0
G1 X132.410 Y125.465 F6000.000
G1 E2.00000 F1800.000
G1 X132.410 Y105.465 E3.58556 F1200.000
G1 F1800.000 E1.58556
G92 E0
G1 X122.510 Y125.465 F6000.000
G1 E2.00000 F1800.000
G1 X122.510 Y105.465 E3.58556 F1200.000
G1 F1800.000 E1.58556
G92 E0
G1 X112.610 Y125.465 F6000.000
G1 E2.00000 F1800.000
G1 X112.610 Y105.465 E3.58556 F1200.000
G1 F1800.000 E1.58556
G92 E0
G1 X102.710 Y125.465 F6000.000
G1 E2.00000 F1800.000
G1 X102.710 Y105.465 E3.58556 F1200.000
G1 F1800.000 E1.58556
G92 E0
G1 X92.810 Y125.465 F6000.000
G1 E2.00000 F1800.000
G1 X92.810 Y105.465 E3.58556 F1200.000
G1 F1800.000 E1.58556
G92 E0
G1 X82.910 Y125.465 F6000.000
G1 E2.00000 F1800.000
G1 X82.910 Y105.465 E3.58556 F1200.000
G1 F1800.000 E1.58556
G92 E0
G1 X73.010 Y125.465 F6000.000
G1 E2.00000 F1800.000
G1 X73.010 Y105.465 E3.58556 F1200.000
G1 F1800.000 E1.58556
G92 E0
G1 X63.110 Y125.465 F6000.000
G1 E2.00000 F1800.000
G1 X63.110 Y105.465 E3.58556 F1200.000
G1 F1800.000 E1.58556
G92 E0
G1 X51.615 Y107.783 F6000.000
G1 E2.00000 F1800.000
G1 X51.660 Y108.247 E2.03697 F1200.000
G1 F1800.000 E0.03697
G92 E0
G1 X50.166 Y105.615 F6000.000
G1 E2.00000 F1800.000
G1 X50.189 Y105.228 E2.03074 F1200.000
G1 X50.274 Y104.742 E2.06985
G1 X50.445 Y104.280 E2.10892
G1 X50.697 Y103.924 E2.14355
G1 X51.078 Y103.684 E2.17916
G1 X51.552 Y103.620 E2.21708
G1 X51.708 Y103.643 E2.22965
G1 X51.992 Y103.724 E2.25302
G1 X52.177 Y103.837 E2.27018
G1 X52.350 Y103.984 E2.28824
G1 X52.495 Y104.173 E2.30714
G1 X52.619 Y104.400 E2.32761
G1 X52.762 Y104.851 E2.36508
G1 X52.839 Y105.366 E2.40637
G1 X52.860 Y105.909 E2.44949
G1 X52.834 Y106.439 E2.49152
G1 X52.750 Y106.946 E2.53227
G1 X52.590 Y107.404 E2.57072
G1 X52.467 Y107.597 E2.58889
G1 X52.319 Y107.768 E2.60683
G1 X52.150 Y107.895 E2.62354
G1 X51.954 Y107.985 E2.64066
G1 X51.703 Y108.039 E2.66099
G1 X51.465 Y108.052 E2.67988
G1 X51.196 Y108.011 E2.70149
G1 X51.022 Y107.956 E2.71591
G1 X50.661 Y107.699 E2.75103
G1 X50.419 Y107.319 E2.78680
G1 X50.261 Y106.825 E2.82787
G1 X50.186 Y106.334 E2.86726
G1 X50.166 Y105.615 E2.92427
G1 F1800.000 E0.92427
G92 E0
G1 X51.032 Y103.405 F6000.000
G1 E2.00000 F1800.000
G1 X51.217 Y103.933 E2.04434 F1200.000
G1 F1800.000 E0.04434
G92 E0
M104 S0
M190 S0
G1 Z200 F1000
G28 X Y F3000
M84
M117 Sharebot NG
; filament used = 147.0mm (0.4cm3)
; filament used = 116.4mm (0.3cm3)

; avoid_crossing_perimeters = 0
; bed_size = 170,150
; bed_temperature = 40
; bridge_acceleration = 600
; bridge_fan_speed = 100
; bridge_flow_ratio = 0.9
; brim_width = 0
; complete_objects = 0
; cooling = 1
; default_acceleration = 1200
; disable_fan_first_layers = 2
; duplicate_distance = 6
; end_gcode = M104 S0\nM190 S0\nG1 Z200 F1000\nG1 X200 Y200 F3000\nM84
; external_perimeters_first = 0
; extruder_clearance_height = 20
; extruder_clearance_radius = 20
; extruder_offset = 0x0,0x0
; extrusion_axis = E
; extrusion_multiplier = 1,1
; fan_always_on = 1
; fan_below_layer_time = 60
; filament_diameter = 1.75,1.75
; first_layer_acceleration = 1200
; first_layer_bed_temperature = 40
; first_layer_extrusion_width = 0.7
; first_layer_speed = 20
; first_layer_temperature = 230,230
; g0 = 0
; gcode_arcs = 0
; gcode_comments = 0
; gcode_flavor = reprap
; infill_acceleration = 1500
; infill_first = 0
; layer_gcode = 
; max_fan_speed = 100
; min_fan_speed = 100
; min_print_speed = 15
; min_skirt_length = 60
; notes = Profile for Sharebot NG !
; nozzle_diameter = 0.35,0.35
; only_retract_when_crossing_perimeters = 1
; ooze_prevention = 0
; output_filename_format = [input_filename_base].gcode
; perimeter_acceleration = 1200
; post_process = 
; print_center = 85,105
; resolution = 0
; retract_before_travel = 0,0
; retract_layer_change = 0,0
; retract_length = 2,2
; retract_length_toolchange = 10,10
; retract_lift = 0,0
; retract_restart_extra = 0,0
; retract_restart_extra_toolchange = 0,0
; retract_speed = 30,30
; skirt_distance = 4
; skirt_height = 1
; skirts = 2
; slowdown_below_layer_time = 10
; spiral_vase = 0
; standby_temperature_delta = -5
; start_gcode = M218 T1 X-58.5 Y0\nG28 ;Home all axis\nT0\nM106 S127 ;EXTRUDER FAN ON\nG1 Z10 F1000\nG1 X200 Y200 F3000\nM104 S[first_layer_temperature]\nT1\nM109 S[first_layer_temperature]\nT0\nG92 E0\nM117 DUAL ESTRUSION
; temperature = 215,215
; threads = 2
; toolchange_gcode = 
; travel_speed = 100
; use_firmware_retraction = 0
; use_relative_e_distances = 0
; vibration_limit = 0
; wipe = 0,0
; z_offset = 0
; dont_support_bridges = 1
; extrusion_width = 0.4
; first_layer_height = 0.3
; infill_only_where_needed = 0
